src/assets/images/logo.svg

<svg width="147" height="30" viewBox="0 0 147 30" fill="none" xmlns="http://www.w3.org/2000/svg">
<path d="M9.84 24.288C8.512 24.288 7.28 24.072 6.144 23.64C5.024 23.192 4.04 22.568 3.192 21.768C2.36 20.968 1.712 20.032 1.248 18.96C0.784 17.888 0.552 16.72 0.552 15.456C0.552 14.176 0.792 13 1.272 11.928C1.768 10.856 2.448 9.928 3.312 9.144C4.192 8.344 5.208 7.728 6.36 7.296C7.512 6.848 8.744 6.624 10.056 6.624C11.64 6.624 13.056 6.896 14.304 7.44C15.568 7.984 16.592 8.72 17.376 9.648L14.136 12.888C13.544 12.2 12.928 11.688 12.288 11.352C11.648 11.016 10.88 10.848 9.984 10.848C9.136 10.848 8.368 11.04 7.68 11.424C6.992 11.792 6.44 12.32 6.024 13.008C5.624 13.696 5.424 14.504 5.424 15.432C5.424 16.36 5.608 17.176 5.976 17.88C6.36 18.568 6.888 19.104 7.56 19.488C8.232 19.872 9.016 20.064 9.912 20.064C10.776 20.064 11.504 19.896 12.096 19.56C12.688 19.224 13.136 18.744 13.44 18.12C13.76 17.496 13.92 16.76 13.92 15.912L17.208 18L9.264 17.76V13.92H18.744V14.64C18.744 16.688 18.368 18.432 17.616 19.872C16.88 21.312 15.84 22.408 14.496 23.16C13.168 23.912 11.616 24.288 9.84 24.288ZM26.205 24.288C24.909 24.288 23.749 24.024 22.725 23.496C21.717 22.952 20.917 22.208 20.325 21.264C19.749 20.32 19.461 19.256 19.461 18.072C19.461 16.888 19.749 15.832 20.325 14.904C20.901 13.976 21.693 13.248 22.701 12.72C23.725 12.176 24.885 11.904 26.181 11.904C27.477 11.904 28.629 12.176 29.637 12.72C30.645 13.248 31.437 13.976 32.013 14.904C32.605 15.832 32.901 16.888 32.901 18.072C32.901 19.256 32.613 20.32 32.037 21.264C31.461 22.208 30.669 22.952 29.661 23.496C28.653 24.024 27.501 24.288 26.205 24.288ZM26.181 20.16C26.581 20.16 26.925 20.08 27.213 19.92C27.517 19.744 27.749 19.504 27.909 19.2C28.069 18.88 28.149 18.512 28.149 18.096C28.149 17.68 28.061 17.32 27.885 17.016C27.725 16.696 27.501 16.456 27.213 16.296C26.925 16.12 26.581 16.032 26.181 16.032C25.797 16.032 25.453 16.12 25.149 16.296C24.861 16.472 24.629 16.72 24.453 17.04C24.293 17.344 24.213 17.704 24.213 18.12C24.213 18.52 24.293 18.88 24.453 19.2C24.629 19.504 24.861 19.744 25.149 19.92C25.453 20.08 25.797 20.16 26.181 20.16ZM34.3624 24V6.432H39.0664V24H34.3624ZM46.4353 24.24C45.2673 24.24 44.2433 23.976 43.3633 23.448C42.4993 22.92 41.8193 22.2 41.3233 21.288C40.8433 20.36 40.6033 19.296 40.6033 18.096C40.6033 16.896 40.8433 15.832 41.3233 14.904C41.8193 13.976 42.4993 13.256 43.3633 12.744C44.2433 12.216 45.2673 11.952 46.4353 11.952C47.1393 11.952 47.8033 12.072 48.4273 12.312C49.0513 12.536 49.5793 12.856 50.0113 13.272C50.4593 13.688 50.7393 14.168 50.8513 14.712V21.24C50.7393 21.784 50.4593 22.288 50.0113 22.752C49.5793 23.2 49.0513 23.56 48.4273 23.832C47.8033 24.104 47.1393 24.24 46.4353 24.24ZM47.2993 20.112C47.6993 20.112 48.0433 20.032 48.3313 19.872C48.6193 19.696 48.8433 19.456 49.0033 19.152C49.1793 18.848 49.2673 18.496 49.2673 18.096C49.2673 17.696 49.1873 17.352 49.0273 17.064C48.8673 16.76 48.6353 16.52 48.3313 16.344C48.0433 16.168 47.7073 16.08 47.3233 16.08C46.9393 16.08 46.5953 16.168 46.2913 16.344C46.0033 16.52 45.7713 16.76 45.5953 17.064C45.4193 17.368 45.3313 17.712 45.3313 18.096C45.3313 18.48 45.4113 18.824 45.5713 19.128C45.7473 19.432 45.9873 19.672 46.2913 19.848C46.5953 20.024 46.9313 20.112 47.2993 20.112ZM53.7073 24H49.1233V20.832L49.7713 17.952L49.0033 15.096V6.432H53.7073V24ZM58.2998 24L54.8678 12.192H59.3318L61.2278 20.784L59.9078 20.808L62.3798 12.192H66.8198L69.3158 20.808L67.9718 20.784L69.9158 12.192H74.3798L70.9478 24H66.4598L64.1558 15.84H65.1158L62.7398 24H58.2998ZM75.3306 24V12.192H80.0346V24H75.3306ZM77.6826 11.088C76.9946 11.088 76.4186 10.856 75.9546 10.392C75.5066 9.912 75.2826 9.328 75.2826 8.64C75.2826 7.952 75.5066 7.376 75.9546 6.912C76.4186 6.432 76.9946 6.192 77.6826 6.192C78.3866 6.192 78.9626 6.432 79.4106 6.912C79.8586 7.376 80.0826 7.952 80.0826 8.64C80.0826 9.328 79.8586 9.912 79.4106 10.392C78.9626 10.856 78.3866 11.088 77.6826 11.088ZM89.7806 24V17.376C89.7806 16.912 89.6446 16.56 89.3726 16.32C89.1166 16.064 88.7886 15.936 88.3886 15.936C88.1166 15.936 87.8686 15.992 87.6446 16.104C87.4366 16.216 87.2686 16.384 87.1406 16.608C87.0286 16.816 86.9726 17.072 86.9726 17.376L85.1486 16.56C85.1486 15.6 85.3566 14.776 85.7726 14.088C86.2046 13.4 86.7886 12.872 87.5246 12.504C88.2766 12.136 89.1246 11.952 90.0686 11.952C90.9166 11.952 91.6686 12.144 92.3246 12.528C92.9966 12.896 93.5246 13.408 93.9086 14.064C94.2926 14.704 94.4846 15.448 94.4846 16.296V24H89.7806ZM82.2686 24V12.192H86.9726V24H82.2686ZM95.5112 24L102.015 6.912H106.911L113.343 24H108.351L103.575 9.48H105.303L100.407 24H95.5112ZM99.7352 21.12V17.376H109.287V21.12H99.7352ZM114.612 24V6.432H119.316V24H114.612ZM127.717 24.288C126.341 24.288 125.133 24.032 124.093 23.52C123.053 22.992 122.237 22.264 121.645 21.336C121.069 20.392 120.781 19.312 120.781 18.096C120.781 16.896 121.061 15.832 121.621 14.904C122.197 13.976 122.981 13.248 123.973 12.72C124.965 12.176 126.085 11.904 127.333 11.904C128.565 11.904 129.653 12.16 130.597 12.672C131.541 13.168 132.277 13.864 132.805 14.76C133.349 15.656 133.621 16.68 133.621 17.832C133.621 18.072 133.605 18.328 133.573 18.6C133.557 18.856 133.509 19.16 133.429 19.512L122.773 19.584V16.704L131.677 16.632L129.493 17.904C129.493 17.264 129.413 16.744 129.253 16.344C129.109 15.928 128.885 15.616 128.581 15.408C128.277 15.2 127.893 15.096 127.429 15.096C126.949 15.096 126.533 15.216 126.181 15.456C125.829 15.696 125.557 16.04 125.365 16.488C125.189 16.936 125.101 17.48 125.101 18.12C125.101 18.776 125.197 19.328 125.389 19.776C125.597 20.208 125.893 20.536 126.277 20.76C126.661 20.984 127.141 21.096 127.717 21.096C128.277 21.096 128.765 21.008 129.181 20.832C129.613 20.64 130.005 20.344 130.357 19.944L132.709 22.272C132.117 22.944 131.405 23.448 130.573 23.784C129.741 24.12 128.789 24.288 127.717 24.288ZM141.002 24.288C139.722 24.288 138.57 24.024 137.546 23.496C136.522 22.968 135.714 22.24 135.122 21.312C134.53 20.368 134.234 19.304 134.234 18.12C134.234 16.92 134.53 15.856 135.122 14.928C135.73 13.984 136.546 13.248 137.57 12.72C138.61 12.176 139.778 11.904 141.074 11.904C142.002 11.904 142.834 12.048 143.57 12.336C144.322 12.624 145.018 13.064 145.658 13.656L142.706 16.608C142.498 16.416 142.266 16.272 142.01 16.176C141.754 16.08 141.442 16.032 141.074 16.032C140.69 16.032 140.338 16.12 140.018 16.296C139.714 16.456 139.466 16.688 139.274 16.992C139.082 17.296 138.986 17.656 138.986 18.072C138.986 18.488 139.082 18.856 139.274 19.176C139.466 19.48 139.722 19.72 140.042 19.896C140.362 20.072 140.706 20.16 141.074 20.16C141.49 20.16 141.834 20.096 142.106 19.968C142.378 19.84 142.618 19.664 142.826 19.44L145.778 22.392C145.09 23.032 144.37 23.512 143.618 23.832C142.866 24.136 141.994 24.288 141.002 24.288Z" fill="white"/>
</svg>

<svg xmlns="http://www.w3.org/2000/svg" width="147" height="30" fill="none"><path d="M9.84 24.288c-1.328 0-2.56-.216-3.696-.648-1.12-.448-2.104-1.072-2.952-1.872-.832-.8-1.48-1.736-1.944-2.808s-.696-2.24-.696-3.504c0-1.28.24-2.456.72-3.528a8.59 8.59 0 0 1 2.04-2.784c.88-.8 1.896-1.416 3.048-1.848 1.152-.448 2.384-.672 3.696-.672 1.584 0 3 .272 4.248.816 1.264.544 2.288 1.28 3.072 2.208l-3.24 3.24c-.592-.688-1.208-1.2-1.848-1.536s-1.408-.504-2.304-.504c-.848 0-1.616.192-2.304.576-.688.368-1.24.896-1.656 1.584-.4.688-.6 1.496-.6 2.424s.184 1.744.552 2.448c.384.688.912 1.224 1.584 1.608s1.456.576 2.352.576c.864 0 1.592-.168 2.184-.504s1.04-.816 1.344-1.44c.32-.624.48-1.36.48-2.208L17.208 18l-7.944-.24v-3.84h9.48v.72c0 2.048-.376 3.792-1.128 5.232-.736 1.44-1.776 2.536-3.12 3.288-1.328.752-2.88 1.128-4.656 1.128zm16.365 0c-1.296 0-2.456-.264-3.48-.792a6.32 6.32 0 0 1-2.4-2.232c-.576-.944-.864-2.008-.864-3.192s.288-2.24.864-3.168 1.368-1.656 2.376-2.184c1.024-.544 2.184-.816 3.48-.816s2.448.272 3.456.816c1.008.528 1.8 1.256 2.376 2.184.592.928.888 1.984.888 3.168s-.288 2.248-.864 3.192a6.14 6.14 0 0 1-2.376 2.232c-1.008.528-2.16.792-3.456.792zm-.024-4.128c.4 0 .744-.08 1.032-.24.304-.176.536-.416.696-.72.16-.32.24-.688.24-1.104s-.088-.776-.264-1.08c-.16-.32-.384-.56-.672-.72-.288-.176-.632-.264-1.032-.264-.384 0-.728.088-1.032.264-.288.176-.52.424-.696.744-.16.304-.24.664-.24 1.08 0 .4.08.76.24 1.08.176.304.408.544.696.72.304.16.648.24 1.032.24zM34.362 24V6.432h4.704V24h-4.704zm12.073.24c-1.168 0-2.192-.264-3.072-.792-.864-.528-1.544-1.248-2.04-2.16-.48-.928-.72-1.992-.72-3.192s.24-2.264.72-3.192c.496-.928 1.176-1.648 2.04-2.16.88-.528 1.904-.792 3.072-.792a5.5 5.5 0 0 1 1.992.36c.624.224 1.152.544 1.584.96.448.416.728.896.84 1.44v6.528c-.112.544-.392 1.048-.84 1.512-.432.448-.96.808-1.584 1.08a4.93 4.93 0 0 1-1.992.408zm.864-4.128c.4 0 .744-.08 1.032-.24a1.82 1.82 0 0 0 .672-.72c.176-.304.264-.656.264-1.056s-.08-.744-.24-1.032c-.16-.304-.392-.544-.696-.72-.288-.176-.624-.264-1.008-.264s-.728.088-1.032.264c-.288.176-.52.416-.696.72s-.264.648-.264 1.032.08.728.24 1.032c.176.304.416.544.72.72s.64.264 1.008.264zM53.707 24h-4.584v-3.168l.648-2.88-.768-2.856V6.432h4.704V24zm4.593 0l-3.432-11.808h4.464l1.896 8.592-1.32.024 2.472-8.616h4.44l2.496 8.616-1.344-.024 1.944-8.592h4.464L70.948 24H66.46l-2.304-8.16h.96L62.74 24H58.3zm17.031 0V12.192h4.704V24h-4.704zm2.352-12.912c-.688 0-1.264-.232-1.728-.696-.448-.48-.672-1.064-.672-1.752s.224-1.264.672-1.728c.464-.48 1.04-.72 1.728-.72.704 0 1.28.24 1.728.72.448.464.672 1.04.672 1.728s-.224 1.272-.672 1.752c-.448.464-1.024.696-1.728.696zM89.781 24v-6.624c0-.464-.136-.816-.408-1.056-.256-.256-.584-.384-.984-.384a1.64 1.64 0 0 0-.744.168c-.208.112-.376.28-.504.504-.112.208-.168.464-.168.768l-1.824-.816c0-.96.208-1.784.624-2.472.432-.688 1.016-1.216 1.752-1.584.752-.368 1.6-.552 2.544-.552.848 0 1.6.192 2.256.576a4.06 4.06 0 0 1 1.584 1.536c.384.64.576 1.384.576 2.232V24h-4.704zm-7.512 0V12.192h4.704V24h-4.704zm13.243 0l6.504-17.088h4.896L113.343 24h-4.992l-4.776-14.52h1.728L100.407 24h-4.896zm4.224-2.88v-3.744h9.552v3.744h-9.552zM114.612 24V6.432h4.704V24h-4.704zm13.105.288c-1.376 0-2.584-.256-3.624-.768-1.04-.528-1.856-1.256-2.448-2.184-.576-.944-.864-2.024-.864-3.24 0-1.2.28-2.264.84-3.192.576-.928 1.36-1.656 2.352-2.184.992-.544 2.112-.816 3.36-.816 1.232 0 2.32.256 3.264.768.944.496 1.68 1.192 2.208 2.088.544.896.816 1.92.816 3.072a6.59 6.59 0 0 1-.048.768c-.016.256-.064.56-.144.912l-10.656.072v-2.88l8.904-.072-2.184 1.272c0-.64-.08-1.16-.24-1.56-.144-.416-.368-.728-.672-.936s-.688-.312-1.152-.312c-.48 0-.896.12-1.248.36s-.624.584-.816 1.032c-.176.448-.264.992-.264 1.632 0 .656.096 1.208.288 1.656.208.432.504.76.888.984s.864.336 1.44.336c.56 0 1.048-.088 1.464-.264.432-.192.824-.488 1.176-.888l2.352 2.328c-.592.672-1.304 1.176-2.136 1.512s-1.784.504-2.856.504zm13.285 0c-1.28 0-2.432-.264-3.456-.792a6.16 6.16 0 0 1-2.424-2.184c-.592-.944-.888-2.008-.888-3.192 0-1.2.296-2.264.888-3.192.608-.944 1.424-1.68 2.448-2.208 1.04-.544 2.208-.816 3.504-.816.928 0 1.76.144 2.496.432.752.288 1.448.728 2.088 1.32l-2.952 2.952c-.208-.192-.44-.336-.696-.432s-.568-.144-.936-.144c-.384 0-.736.088-1.056.264-.304.16-.552.392-.744.696s-.288.664-.288 1.08.096.784.288 1.104c.192.304.448.544.768.72a2.11 2.11 0 0 0 1.032.264c.416 0 .76-.064 1.032-.192s.512-.304.72-.528l2.952 2.952c-.688.64-1.408 1.12-2.16 1.44-.752.304-1.624.456-2.616.456z" fill="#fff"/></svg>
